X: 21553
T: ARIETTA
C: Copyright.--D. T. Williams.
%R: jig
B: W. Hamilton "Universal Tune-Book" Vol. 2 Glasgow 1846 p.155 #3
S: http://s3-eu-west-1.amazonaws.com/itma.dl.printmaterial/book_pdfs/hamiltonvol2web.pdf
Z: 2016 John Chambers <jc:trillian.mit.edu>
M: 6/8
L: 1/8
K: F
% - - - - - - - - - - - - - - - - - - - - - - - - -
F A c |\
f2f faf | g<ec d2d |\
d>ef c<AG | G2F FA c |\
f2f faf | g<ec d2d |\
d>ef c<AG | "^Fine."F3 |] \
cd=B | c2c ceg | c2c cd=B | c2c ceg | "^D.C."c3 |]
% - - - - - - - - - - - - - - - - - - - - - - - - -

%%sep 1 1 500
%%sep 1 1 500

